desktop/renderer-app/src/assets/image/netless_black.svg

<?xml version="1.0" encoding="UTF-8"?>
<svg width="88px" height="19px" viewBox="0 0 88 19" version="1.1" xmlns="http://www.w3.org/2000/svg" xmlns:xlink="http://www.w3.org/1999/xlink">
    <!-- Generator: Sketch 49 (51002) - http://www.bohemiancoding.com/sketch -->
    <title>about_page_top_bg1</title>
    <desc>Created with Sketch.</desc>
    <defs></defs>
    <g id="Page-1" stroke="none" stroke-width="1" fill="none" fill-rule="evenodd">
        <g id="about_page_top_bg1" fill="#000000" fill-rule="nonzero">
            <g id="title">
                <path d="M8.30515422,9.66827624 C8.30515422,9.11100399 8.1433655,8.70653219 7.81978807,8.45486085 C7.51418715,8.18521299 7.09173883,8.05038905 6.5524431,8.05038905 C6.19291262,8.05038905 5.83338213,8.09533037 5.47385165,8.18521299 C5.13229769,8.27509561 4.83568503,8.40991954 4.58401369,8.58968478 L4.58401369,17.9464657 C4.40424845,18.0003953 4.11662406,18.0543248 3.72114053,18.1082544 C3.34363352,18.162184 2.94814998,18.1891488 2.53468993,18.1891488 C2.13920639,18.1891488 1.77967591,18.162184 1.45609847,18.1082544 C1.15049755,18.0543248 0.889837953,17.9464657 0.674119661,17.784677 C0.458401369,17.6228882 0.287624389,17.4071699 0.161788719,17.1375221 C0.0539295729,16.8498977 0,16.4813789 0,16.0319658 L0,7.94252991 C0,7.45716375 0.0988708836,7.06168022 0.296612651,6.75607931 C0.512330942,6.45047839 0.799955331,6.17184227 1.15948582,5.92017093 C1.77068764,5.48873434 2.53468993,5.13819212 3.45149266,4.86854425 C4.38627193,4.59889639 5.41992207,4.46407246 6.5524431,4.46407246 C8.58379035,4.46407246 10.147748,4.91348557 11.2443159,5.81231178 C12.3408839,6.69316147 12.8891679,7.92455338 12.8891679,9.50648752 L12.8891679,17.9464657 C12.7094027,18.0003953 12.4217783,18.0543248 12.0262948,18.1082544 C11.6487877,18.162184 11.2533042,18.1891488 10.8398441,18.1891488 C10.4443606,18.1891488 10.0848301,18.162184 9.76125269,18.1082544 C9.45565178,18.0543248 9.19499218,17.9464657 8.97927388,17.784677 C8.76355559,17.6228882 8.59277861,17.4071699 8.46694294,17.1375221 C8.3590838,16.8498977 8.30515422,16.4813789 8.30515422,16.0319658 L8.30515422,9.66827624 Z" id="path66299"></path>
                <path d="M22.6769622,18.404867 C21.6163473,18.404867 20.6276384,18.2610549 19.7108357,17.9734305 C18.8120095,17.6678296 18.0210424,17.2184164 17.3379345,16.6251911 C16.6728031,16.0319658 16.1424956,15.2859401 15.7470121,14.3871139 C15.3695051,13.4882877 15.1807516,12.436661 15.1807516,11.2322339 C15.1807516,10.0457833 15.3695051,9.03010963 15.7470121,8.18521299 C16.1424956,7.32233982 16.6548266,6.62125537 17.2840049,6.08195964 C17.9131833,5.52468739 18.6322442,5.12021559 19.4411878,4.86854425 C20.2501314,4.59889639 21.0770515,4.46407246 21.9219482,4.46407246 C22.874704,4.46407246 23.7375771,4.60788465 24.5105677,4.89550904 C25.3015347,5.18313343 25.9756544,5.57861696 26.5329267,6.08195964 C27.1081754,6.58530232 27.5486003,7.18751589 27.8542012,7.88860034 C28.1777786,8.58968478 28.3395674,9.35368707 28.3395674,10.1806072 C28.3395674,10.791809 28.1687904,11.2591986 27.8272364,11.5827761 C27.4856824,11.9063535 27.0093046,12.1130835 26.3981027,12.2029662 L19.7378005,13.2006633 C19.9355422,13.7938886 20.340014,14.2433017 20.9512159,14.5489026 C21.5624177,14.836527 22.2635021,14.9803392 23.0544692,14.9803392 C23.7915067,14.9803392 24.4836029,14.8904565 25.1307578,14.7106913 C25.7958892,14.5129495 26.3351849,14.288243 26.748645,14.0365716 C27.0362693,14.2163369 27.2789524,14.4680082 27.4766942,14.7915857 C27.674436,15.1151631 27.7733068,15.4567171 27.7733068,15.8162475 C27.7733068,16.6251911 27.3957998,17.2274047 26.6407858,17.6228882 C26.065537,17.9284892 25.4183822,18.1352192 24.6993212,18.2430783 C23.9802602,18.3509375 23.3061405,18.404867 22.6769622,18.404867 Z M21.9219482,7.80770598 C21.4905116,7.80770598 21.1130046,7.87961207 20.7894271,8.02342427 C20.4838262,8.16723646 20.2321549,8.35598997 20.0344131,8.58968478 C19.8366714,8.80540307 19.6838709,9.05707441 19.5760118,9.3446988 C19.4861291,9.61434667 19.4321996,9.89298279 19.414223,10.1806072 L24.0252015,9.42559316 C23.9712719,9.06606268 23.7735302,8.70653219 23.4319762,8.34700171 C23.0904223,7.98747122 22.5870796,7.80770598 21.9219482,7.80770598 Z" id="path66301"></path>
                <path d="M35.1300608,13.4703111 C35.1300608,13.9377008 35.273873,14.2702665 35.5614974,14.4680082 C35.8670983,14.66575 36.2895467,14.7646209 36.8288424,14.7646209 C37.0984902,14.7646209 37.3771264,14.7466444 37.6647508,14.7106913 C37.9523751,14.6567617 38.2040465,14.5938439 38.4197648,14.5219378 C38.5815535,14.7196796 38.7163774,14.9443861 38.8242366,15.1960575 C38.9500722,15.4297523 39.0129901,15.7173767 39.0129901,16.0589306 C39.0129901,16.7420386 38.7523305,17.2993108 38.2310113,17.7307474 C37.7276686,18.162184 36.8288424,18.3779023 35.5345326,18.3779023 C33.9525985,18.3779023 32.7301948,18.0183718 31.8673217,17.2993108 C31.022425,16.5802498 30.5999767,15.4117758 30.5999767,13.7938886 L30.5999767,2.25295997 C30.7977185,2.1990304 31.0763546,2.14510082 31.4358851,2.09117125 C31.8133921,2.01926515 32.2088756,1.98331211 32.6223357,1.98331211 C33.4133028,1.98331211 34.0245046,2.1271243 34.4559412,2.41474869 C34.9053543,2.68439655 35.1300608,3.26863359 35.1300608,4.16745981 L35.1300608,5.89320614 L38.6624479,5.89320614 C38.770307,6.09094791 38.8691779,6.34261925 38.9590605,6.64822016 C39.0669197,6.93584455 39.1208492,7.25942199 39.1208492,7.61895247 C39.1208492,8.24813082 38.977037,8.70653219 38.6894126,8.99415658 C38.4197648,9.26380444 38.051246,9.39862838 37.5838564,9.39862838 L35.1300608,9.39862838 L35.1300608,13.4703111 Z" id="path66303"></path>
                <path d="M46.007401,17.9464657 C45.8096592,17.9824187 45.5130466,18.02736 45.1175631,18.0812896 C44.7400561,18.1531957 44.3535608,18.1891488 43.9580772,18.1891488 C43.5625937,18.1891488 43.2030632,18.162184 42.8794858,18.1082544 C42.5738849,18.0543248 42.3132253,17.9464657 42.097507,17.784677 C41.8817887,17.6228882 41.7110117,17.4071699 41.585176,17.1375221 C41.4773169,16.8498977 41.4233873,16.4813789 41.4233873,16.0319658 L41.4233873,0.392389705 C41.6211291,0.356436657 41.9087535,0.311495346 42.2862605,0.257565773 C42.681744,0.185659676 43.0772276,0.149706628 43.4727111,0.149706628 C43.8681946,0.149706628 44.2187368,0.176671414 44.5243378,0.230600987 C44.8479152,0.28453056 45.1175631,0.392389705 45.3332814,0.554178424 C45.5489996,0.715967143 45.7107884,0.940673696 45.8186475,1.22829809 C45.9444832,1.49794595 46.007401,1.85747644 46.007401,2.30688954 L46.007401,17.9464657 Z" id="path66305"></path>
                <path d="M55.8036255,18.404867 C54.7430106,18.404867 53.7543018,18.2610549 52.837499,17.9734305 C51.9386728,17.6678296 51.1477057,17.2184164 50.4645978,16.6251911 C49.7994664,16.0319658 49.269159,15.2859401 48.8736754,14.3871139 C48.4961684,13.4882877 48.3074149,12.436661 48.3074149,11.2322339 C48.3074149,10.0457833 48.4961684,9.03010963 48.8736754,8.18521299 C49.269159,7.32233982 49.7814899,6.62125537 50.4106683,6.08195964 C51.0398466,5.52468739 51.7589076,5.12021559 52.5678512,4.86854425 C53.3767948,4.59889639 54.2037149,4.46407246 55.0486115,4.46407246 C56.0013673,4.46407246 56.8642405,4.60788465 57.637231,4.89550904 C58.4281981,5.18313343 59.1023177,5.57861696 59.65959,6.08195964 C60.2348388,6.58530232 60.6752636,7.18751589 60.9808645,7.88860034 C61.304442,8.58968478 61.4662307,9.35368707 61.4662307,10.1806072 C61.4662307,10.791809 61.2954537,11.2591986 60.9538997,11.5827761 C60.6123458,11.9063535 60.1359679,12.1130835 59.5247661,12.2029662 L52.8644638,13.2006633 C53.0622056,13.7938886 53.4666774,14.2433017 54.0778792,14.5489026 C54.689081,14.836527 55.3901655,14.9803392 56.1811325,14.9803392 C56.91817,14.9803392 57.6102662,14.8904565 58.2574211,14.7106913 C58.9225525,14.5129495 59.4618482,14.288243 59.8753083,14.0365716 C60.1629327,14.2163369 60.4056158,14.4680082 60.6033575,14.7915857 C60.8010993,15.1151631 60.8999702,15.4567171 60.8999702,15.8162475 C60.8999702,16.6251911 60.5224632,17.2274047 59.7674491,17.6228882 C59.1922004,17.9284892 58.5450455,18.1352192 57.8259845,18.2430783 C57.1069235,18.3509375 56.4328039,18.404867 55.8036255,18.404867 Z M55.0486115,7.80770598 C54.6171749,7.80770598 54.2396679,7.87961207 53.9160905,8.02342427 C53.6104896,8.16723646 53.3588182,8.35598997 53.1610765,8.58968478 C52.9633347,8.80540307 52.8105342,9.05707441 52.7026751,9.3446988 C52.6127925,9.61434667 52.5588629,9.89298279 52.5408864,10.1806072 L57.1518649,9.42559316 C57.0979353,9.06606268 56.9001935,8.70653219 56.5586396,8.34700171 C56.2170856,7.98747122 55.7137429,7.80770598 55.0486115,7.80770598 Z" id="path66307"></path>
                <path d="M74.7282692,14.0635364 C74.7282692,15.4297523 74.2159382,16.4993555 73.1912763,17.272346 C72.1666145,18.0453366 70.6565864,18.4318318 68.6611922,18.4318318 C67.9061782,18.4318318 67.2050938,18.3779023 66.5579389,18.2700431 C65.910784,18.162184 65.3535118,18.0003953 64.8861221,17.784677 C64.436709,17.5509821 64.0771785,17.2633578 63.8075307,16.9218038 C63.5558593,16.5802498 63.4300237,16.175778 63.4300237,15.7083884 C63.4300237,15.2769518 63.5199063,14.9174213 63.6996715,14.6297969 C63.8794368,14.324196 64.0951551,14.0725247 64.3468264,13.8747829 C64.8681456,14.1624073 65.4613709,14.4230669 66.1265023,14.6567617 C66.8096102,14.87248 67.591589,14.9803392 68.4724387,14.9803392 C69.029711,14.9803392 69.4521593,14.8994448 69.7397837,14.7376561 C70.0453846,14.5758674 70.1981851,14.3601491 70.1981851,14.0905012 C70.1981851,13.8388299 70.0903259,13.6410881 69.8746076,13.4972759 C69.6588893,13.3534637 69.2993588,13.2366163 68.7960162,13.1467337 L67.9870726,12.984945 C66.423115,12.6793441 65.2546409,12.2029662 64.4816503,11.5558113 C63.7266363,10.8906799 63.3491293,9.94691237 63.3491293,8.72450872 C63.3491293,8.05937732 63.4929415,7.45716375 63.7805659,6.91786802 C64.0681903,6.3785723 64.4726621,5.92915919 64.9939813,5.5696287 C65.5153005,5.21009822 66.1354906,4.93146209 66.8545515,4.73372032 C67.591589,4.53597856 68.4005326,4.43710767 69.2813823,4.43710767 C69.9465137,4.43710767 70.5667038,4.49103724 71.1419526,4.59889639 C71.7351779,4.68877901 72.2475088,4.83259121 72.6789454,5.03033297 C73.110382,5.22807474 73.4519359,5.48873434 73.7036073,5.81231178 C73.9552786,6.11791269 74.0811143,6.48643144 74.0811143,6.91786802 C74.0811143,7.33132808 74.0002199,7.69085857 73.8384312,7.99645948 C73.694619,8.28408387 73.5058655,8.52676695 73.2721707,8.72450872 C73.1283585,8.63462609 72.9126402,8.54474347 72.6250158,8.45486085 C72.3373914,8.34700171 72.0228023,8.25711908 71.6812483,8.18521299 C71.3396943,8.09533037 70.9891521,8.02342427 70.6296216,7.9694947 C70.2880677,7.91556512 69.9734785,7.88860034 69.6858541,7.88860034 C69.0926288,7.88860034 68.6342274,7.96050643 68.31065,8.10431863 C67.9870726,8.2301543 67.8252838,8.43688433 67.8252838,8.72450872 C67.8252838,8.92225048 67.9151665,9.0840392 68.0949317,9.20987487 C68.274697,9.33571054 68.6162509,9.45255795 69.1195936,9.5604171 L69.955502,9.7491706 C71.6812483,10.1446541 72.903652,10.6929381 73.6227129,11.3940226 C74.3597504,12.0771305 74.7282692,12.9669684 74.7282692,14.0635364 Z" id="path66309"></path>
                <path d="M88,14.0635364 C88,15.4297523 87.4876691,16.4993555 86.4630072,17.272346 C85.4383453,18.0453366 83.9283172,18.4318318 81.9329231,18.4318318 C81.177909,18.4318318 80.4768246,18.3779023 79.8296697,18.2700431 C79.1825148,18.162184 78.6252426,18.0003953 78.1578529,17.784677 C77.7084398,17.5509821 77.3489094,17.2633578 77.0792615,16.9218038 C76.8275902,16.5802498 76.7017545,16.175778 76.7017545,15.7083884 C76.7017545,15.2769518 76.7916371,14.9174213 76.9714023,14.6297969 C77.1511676,14.324196 77.3668859,14.0725247 77.6185572,13.8747829 C78.1398764,14.1624073 78.7331017,14.4230669 79.3982331,14.6567617 C80.081341,14.87248 80.8633199,14.9803392 81.7441695,14.9803392 C82.3014418,14.9803392 82.7238901,14.8994448 83.0115145,14.7376561 C83.3171154,14.5758674 83.4699159,14.3601491 83.4699159,14.0905012 C83.4699159,13.8388299 83.3620567,13.6410881 83.1463384,13.4972759 C82.9306201,13.3534637 82.5710897,13.2366163 82.067747,13.1467337 L81.2588034,12.984945 C79.6948458,12.6793441 78.5263717,12.2029662 77.7533812,11.5558113 C76.9983671,10.8906799 76.6208601,9.94691237 76.6208601,8.72450872 C76.6208601,8.05937732 76.7646723,7.45716375 77.0522967,6.91786802 C77.3399211,6.3785723 77.7443929,5.92915919 78.2657121,5.5696287 C78.7870313,5.21009822 79.4072214,4.93146209 80.1262824,4.73372032 C80.8633199,4.53597856 81.6722634,4.43710767 82.5531131,4.43710767 C83.2182445,4.43710767 83.8384346,4.49103724 84.4136834,4.59889639 C85.0069087,4.68877901 85.5192396,4.83259121 85.9506762,5.03033297 C86.3821128,5.22807474 86.7236668,5.48873434 86.9753381,5.81231178 C87.2270095,6.11791269 87.3528451,6.48643144 87.3528451,6.91786802 C87.3528451,7.33132808 87.2719508,7.69085857 87.110162,7.99645948 C86.9663499,8.28408387 86.7775963,8.52676695 86.5439015,8.72450872 C86.4000893,8.63462609 86.184371,8.54474347 85.8967467,8.45486085 C85.6091223,8.34700171 85.2945331,8.25711908 84.9529791,8.18521299 C84.6114252,8.09533037 84.2608829,8.02342427 83.9013525,7.9694947 C83.5597985,7.91556512 83.2452093,7.88860034 82.9575849,7.88860034 C82.3643596,7.88860034 81.9059583,7.96050643 81.5823808,8.10431863 C81.2588034,8.2301543 81.0970147,8.43688433 81.0970147,8.72450872 C81.0970147,8.92225048 81.1868973,9.0840392 81.3666625,9.20987487 C81.5464278,9.33571054 81.8879817,9.45255795 82.3913244,9.5604171 L83.2272328,9.7491706 C84.9529791,10.1446541 86.1753828,10.6929381 86.8944438,11.3940226 C87.6314813,12.0771305 88,12.9669684 88,14.0635364 Z" id="path66311"></path>
            </g>
        </g>
    </g>
</svg>

<svg width="88" height="19" xmlns="http://www.w3.org/2000/svg"><path d="M8.305 9.668c0-.557-.162-.961-.485-1.213-.306-.27-.728-.405-1.268-.405-.36 0-.719.045-1.078.135-.342.09-.638.225-.89.405v9.356c-.18.054-.467.108-.863.162a8.37 8.37 0 0 1-1.186.081c-.396 0-.755-.027-1.079-.08a1.804 1.804 0 0 1-.782-.324 1.677 1.677 0 0 1-.512-.647C.054 16.85 0 16.48 0 16.032v-8.09c0-.485.099-.88.297-1.186.215-.306.503-.584.862-.836.612-.431 1.376-.782 2.292-1.051.935-.27 1.969-.405 3.101-.405 2.032 0 3.596.45 4.692 1.348 1.097.881 1.645 2.113 1.645 3.694v8.44c-.18.054-.467.108-.863.162a8.37 8.37 0 0 1-1.186.081c-.396 0-.755-.027-1.079-.08a1.804 1.804 0 0 1-.782-.324 1.677 1.677 0 0 1-.512-.647c-.108-.288-.162-.657-.162-1.106V9.668Zm14.372 8.737a9.86 9.86 0 0 1-2.966-.432 7.027 7.027 0 0 1-2.373-1.348c-.665-.593-1.196-1.34-1.591-2.238-.377-.899-.566-1.95-.566-3.155 0-1.186.189-2.202.566-3.047.395-.863.908-1.564 1.537-2.103a5.827 5.827 0 0 1 2.157-1.213 7.796 7.796 0 0 1 2.48-.405c.954 0 1.817.144 2.59.432.79.287 1.465.683 2.022 1.186a5.057 5.057 0 0 1 1.321 1.807c.324.7.486 1.465.486 2.292 0 .61-.171 1.078-.513 1.402-.341.323-.818.53-1.429.62l-6.66.998c.198.593.602 1.042 1.213 1.348.611.288 1.313.431 2.103.431.738 0 1.43-.09 2.077-.27.665-.197 1.204-.422 1.618-.673.287.18.53.431.728.755.197.323.296.665.296 1.024 0 .81-.377 1.411-1.132 1.807a6.004 6.004 0 0 1-1.942.62c-.719.108-1.393.162-2.022.162Zm-.755-10.597c-.431 0-.809.072-1.133.215a2.197 2.197 0 0 0-.755.567 2.3 2.3 0 0 0-.458.755c-.09.27-.144.548-.162.836l4.611-.755c-.054-.36-.251-.72-.593-1.079-.342-.36-.845-.54-1.51-.54ZM35.13 13.47c0 .468.144.8.431.998.306.198.729.297 1.268.297.27 0 .548-.018.836-.054.287-.054.539-.117.755-.19.162.199.296.423.404.675.126.234.189.521.189.863 0 .683-.26 1.24-.782 1.672-.503.431-1.402.647-2.696.647-1.582 0-2.805-.36-3.668-1.079-.845-.719-1.267-1.887-1.267-3.505V2.253c.198-.054.476-.108.836-.162a6.331 6.331 0 0 1 1.186-.108c.791 0 1.403.144 1.834.432.45.27.674.854.674 1.752v1.726h3.532c.108.198.207.45.297.755.108.288.162.611.162.971 0 .63-.144 1.088-.432 1.375-.27.27-.638.405-1.105.405H35.13v4.071Zm10.877 4.476c-.197.036-.494.081-.89.135a6.183 6.183 0 0 1-1.159.108c-.395 0-.755-.027-1.079-.08a1.804 1.804 0 0 1-.781-.324 1.677 1.677 0 0 1-.513-.647c-.108-.288-.162-.657-.162-1.106V.392c.198-.036.486-.08.863-.134A6.62 6.62 0 0 1 43.473.15c.395 0 .746.027 1.051.08.324.055.594.162.81.324.215.162.377.387.485.674.125.27.188.63.188 1.079v15.64Zm9.797.459a9.86 9.86 0 0 1-2.967-.432 7.027 7.027 0 0 1-2.372-1.348c-.666-.593-1.196-1.34-1.591-2.238-.378-.899-.567-1.95-.567-3.155 0-1.186.19-2.202.567-3.047.395-.863.907-1.564 1.537-2.103a5.827 5.827 0 0 1 2.157-1.213 7.796 7.796 0 0 1 2.48-.405c.953 0 1.816.144 2.59.432.79.287 1.464.683 2.022 1.186a5.057 5.057 0 0 1 1.32 1.807c.324.7.486 1.465.486 2.292 0 .61-.17 1.078-.512 1.402-.342.323-.818.53-1.43.62l-6.66.998c.198.593.603 1.042 1.214 1.348.611.288 1.312.431 2.103.431.737 0 1.43-.09 2.076-.27.666-.197 1.205-.422 1.618-.673.288.18.53.431.728.755.198.323.297.665.297 1.024 0 .81-.378 1.411-1.133 1.807a6.004 6.004 0 0 1-1.941.62c-.72.108-1.393.162-2.022.162Zm-.755-10.597c-.432 0-.81.072-1.133.215a2.197 2.197 0 0 0-.755.567 2.3 2.3 0 0 0-.458.755c-.09.27-.144.548-.162.836l4.61-.755c-.053-.36-.25-.72-.592-1.079-.342-.36-.845-.54-1.51-.54Zm19.679 6.256c0 1.366-.512 2.435-1.537 3.208-1.024.773-2.534 1.16-4.53 1.16-.755 0-1.456-.054-2.103-.162-.647-.108-1.204-.27-1.672-.485a3.268 3.268 0 0 1-1.078-.863c-.252-.342-.378-.746-.378-1.214 0-.431.09-.79.27-1.078a2.66 2.66 0 0 1 .647-.755 11.79 11.79 0 0 0 1.78.782c.683.215 1.465.323 2.345.323.558 0 .98-.08 1.268-.242.305-.162.458-.378.458-.647a.677.677 0 0 0-.323-.594c-.216-.144-.576-.26-1.079-.35l-.809-.162c-1.564-.306-2.732-.782-3.505-1.43-.755-.664-1.133-1.608-1.133-2.83 0-.666.144-1.268.432-1.807a3.77 3.77 0 0 1 1.213-1.348c.521-.36 1.141-.639 1.86-.836a9.35 9.35 0 0 1 2.427-.297 10.1 10.1 0 0 1 1.861.162c.593.09 1.106.234 1.537.431a2.7 2.7 0 0 1 1.025.782c.251.306.377.674.377 1.106 0 .413-.08.773-.243 1.078-.143.288-.332.53-.566.729-.144-.09-.36-.18-.647-.27a6.505 6.505 0 0 0-.944-.27 9.9 9.9 0 0 0-1.051-.216 6.084 6.084 0 0 0-.944-.08c-.593 0-1.052.072-1.375.215-.324.126-.486.333-.486.62 0 .198.09.36.27.486.18.126.521.243 1.025.35l.836.19c1.725.395 2.948.943 3.667 1.644.737.683 1.105 1.573 1.105 2.67Zm13.272 0c0 1.366-.512 2.435-1.537 3.208-1.025.773-2.535 1.16-4.53 1.16-.755 0-1.456-.054-2.103-.162-.647-.108-1.205-.27-1.672-.485a3.268 3.268 0 0 1-1.079-.863c-.251-.342-.377-.746-.377-1.214 0-.431.09-.79.27-1.078a2.66 2.66 0 0 1 .647-.755c.52.287 1.114.548 1.78.782.682.215 1.464.323 2.345.323.557 0 .98-.08 1.268-.242.305-.162.458-.378.458-.647a.677.677 0 0 0-.324-.594c-.215-.144-.575-.26-1.078-.35l-.81-.162c-1.563-.306-2.732-.782-3.505-1.43-.755-.664-1.132-1.608-1.132-2.83 0-.666.144-1.268.431-1.807.288-.54.692-.989 1.214-1.348.521-.36 1.141-.639 1.86-.836a9.35 9.35 0 0 1 2.427-.297 10.1 10.1 0 0 1 1.86.162c.594.09 1.106.234 1.538.431.431.198.773.459 1.024.782.252.306.378.674.378 1.106 0 .413-.081.773-.243 1.078-.144.288-.332.53-.566.729-.144-.09-.36-.18-.647-.27a6.505 6.505 0 0 0-.944-.27 9.9 9.9 0 0 0-1.052-.216 6.084 6.084 0 0 0-.943-.08c-.594 0-1.052.072-1.376.215-.323.126-.485.333-.485.62 0 .198.09.36.27.486.18.126.521.243 1.024.35l.836.19c1.726.395 2.948.943 3.667 1.644.737.683 1.106 1.573 1.106 2.67Z"/></svg>
